X:0762
M:C
L:1/16
Q:1/4=120
K:D
a2f2g2ab a2f2d2ef|g2e2`f2d2 c2e2 A2fg|a2f2`g2ab a2f2 d2ef|g2e2`B2c2 d2`A2 D2fg|
a2f2g2ab a2f2d2ef|gfge fefd cdec A2fg|a2f2`g2ab a2f2`d'3f|g2ab abag f2(d2 d4)|]

